X: 34330
T: Return Of Spring, The
R: barndance
M: 4/4
K: Gmajor
B|d>d dB|G>G GD|G>B ed|dc cB|
c3A|F3D|FA ed|dc Bc|
d>d dB|G>G GD|G>B ed|dc c>B|
Af f>f|Ae e^c|dB c/B/A|GF G2||
g>g ge|ff f>d|ee eB|d2 dB|
GB/d/ ed|F3 D|F>A ed|G3 B/d/|
g>g ge|ff f>d|ee eB|d3 B|
GB/d/ ed|F3 e/f/|gf ef|g2 g>e||
dB g>f|ee ag|fd ef|ed BG/B/|
dB g>f|ee a>g|fd ef|g2 g2:|

